actions/16/map-globe.svg

<svg xmlns="http://www.w3.org/2000/svg" width="16" height="16" viewBox="0 0 16 16">
 <defs>
  <style id="current-color-scheme" type="text/css">
   .ColorScheme-Text { color:#dfdfdf; } .ColorScheme-Highlight { color:#4285f4; } .ColorScheme-NeutralText { color:#ff9800; } .ColorScheme-PositiveText { color:#4caf50; } .ColorScheme-NegativeText { color:#f44336; }
  </style>
 </defs>
 <path style="fill:currentColor" class="ColorScheme-Text" d="M 8.109375 0 A 8 8 0 0 0 2.3359375 2.34375 A 8 8 0 0 0 2.3359375 13.65625 A 8 8 0 0 0 13.648438 13.65625 A 8 8 0 0 0 13.648438 2.34375 A 8 8 0 0 0 8.109375 0 z M 7.890625 1 A 7 7 0 0 1 12.570312 2.7148438 L 11.166016 4.1191406 A 8 5 45 0 0 5.7421875 1.3769531 A 7 7 0 0 1 7.890625 1 z M 4.8632812 2.3066406 A 7 4 45 0 1 10.457031 4.828125 L 7.9921875 7.2929688 L 3.4414062 2.7421875 A 7 4 45 0 1 4.8632812 2.3066406 z M 13.283203 3.4160156 A 7 7 0 0 1 14.619141 10.226562 A 8 5 45 0 0 11.869141 4.8300781 L 13.283203 3.4160156 z M 2.7324219 3.4472656 L 7.2851562 8 L 4.8183594 10.466797 A 7 4 45 0 1 2.7324219 3.4472656 z M 11.166016 5.5332031 A 7 4 45 0 1 13.251953 12.552734 L 8.6992188 8 L 11.166016 5.5332031 z M 1.3652344 5.7734375 A 8 5 45 0 0 4.1152344 11.169922 L 2.7011719 12.583984 A 7 7 0 0 1 1.3652344 5.7734375 z M 7.9921875 8.7070312 L 12.542969 13.257812 A 7 4 45 0 1 5.5273438 11.171875 L 7.9921875 8.7070312 z M 4.8183594 11.880859 A 8 5 45 0 0 10.242188 14.623047 A 7 7 0 0 1 3.4140625 13.285156 L 4.8183594 11.880859 z"/>
</svg>

<svg xmlns="http://www.w3.org/2000/svg" width="16" height="16">
    <defs>
        <style id="current-color-scheme" type="text/css">
            .ColorScheme-Highlight{color:#4285f4}.ColorScheme-NeutralText{color:#ff9800}.ColorScheme-PositiveText{color:#4caf50}.ColorScheme-NegativeText{color:#f44336}
        </style>
    </defs>
    <path style="fill:currentColor;color:#dfdfdf" d="M8.11 0a8 8 0 0 0-5.774 2.344 8 8 0 0 0 0 11.312 8 8 0 0 0 11.312 0 8 8 0 0 0 0-11.312A8 8 0 0 0 8.11 0zm-.22 1a7 7 0 0 1 4.68 1.715l-1.404 1.404a8 5 45 0 0-5.424-2.742A7 7 0 0 1 7.891 1zM4.864 2.307a7 4 45 0 1 5.594 2.521L7.992 7.293l-4.55-4.55a7 4 45 0 1 1.421-.436zm8.42 1.109a7 7 0 0 1 1.336 6.81 8 5 45 0 0-2.75-5.396l1.414-1.414zm-10.55.031L7.284 8l-2.467 2.467a7 4 45 0 1-2.086-7.02zm8.433 2.086a7 4 45 0 1 2.086 7.02L8.699 8l2.467-2.467zm-9.8.24a8 5 45 0 0 2.75 5.397L2.7 12.584a7 7 0 0 1-1.336-6.81zm6.626 2.934 4.551 4.55a7 4 45 0 1-7.016-2.085l2.465-2.465zm-3.174 3.174a8 5 45 0 0 5.424 2.742 7 7 0 0 1-6.828-1.338l1.404-1.404z"/>
</svg>
